icons/lines/home-trend-down.svg

<svg xmlns="http://www.w3.org/2000/svg" width="24" height="24" viewBox="0 0 24 24" fill="none" stroke="currentColor" stroke-width="2" stroke-linecap="round" stroke-linejoin="round" >
  <path d="M9.02 2.83999L3.63 7.03999C2.73 7.73999 2 9.22999 2 10.36V17.77C2 20.09 3.89 21.99 6.21 21.99H17.79C20.11 21.99 22 20.09 22 17.78V10.5C22 9.28999 21.19 7.73999 20.2 7.04999L14.02 2.71999C12.62 1.73999 10.37 1.78999 9.02 2.83999Z"/>
  <path d="M16.5 16.5L12.3 12.3L10.7 14.7L7.5 11.5"/>
  <path d="M14.5 16.5H16.5V14.5"/>
  </svg>

<svg xmlns="http://www.w3.org/2000/svg" width="24" height="24" viewBox="0 0 24 24" fill="none" stroke="currentColor" stroke-width="2" stroke-linecap="round" stroke-linejoin="round">
  <path d="M14.5 16.5h2v-2" />
  <path d="m16.5 16.5-4.2-4.2-1.6 2.4-3.2-3.2" />
  <path d="M3.63 7.04C2.73 7.74 2 9.23 2 10.36v7.41a4.225 4.225 0 0 0 4.21 4.22h11.58A4.223 4.223 0 0 0 22 17.78V10.5c0-1.21-.81-2.76-1.8-3.45l-6.18-4.33c-1.4-.98-3.65-.93-5 .12z" />
</svg>
